!!!SOCIAL_FUNCTION:	isleta
!!!PDT:	1957
!!!OTL: No_42_The_Sun_and_the_Yellow_Corn.krn
!!!LING_GROUP: Keresan
!!!LANG: Tone
!!!REG: Southwest
**kern
*staff1
=1-
*clefF4
*k[f#c#g#d#a#]
*M3/4
4B\
4B\
8.B\L
16G#\Jk
=2
4B\
4B\
8B\
8r
=3
*M2/4
4B\
4B\
=4
4G#\
16B\
16r
8r
=5
8B\L
8A#\J
16B\LK
8.G#\J
=6
4F#\
16G#\
16r
8r
=7
8B\L
8A#\J
16B\LK
8.G#\J
=8
4F#\
4D#\
=9
8D#\L
16F#\L
16D#\JJ
4BB/
=10
8D#\L
16F#\L
16D#\JJ
4BB/
=11
*M3/4
8D#\L
16F#\L
16D#\JJ
4BB/
16D#/LL
16BB/JJ
8r
=12
*M2/4
4B\
16G#\LL
16F#\J
8G#\J
=13
8G#\L
8F#\J
8D#\L
16F#\Jk
16r
=14
*M3/4
16G#\LL
16F#\
16D#\
16D#\JJ
8BB/L
8BB/J
8BB/L
8BB/J
=15
*M2/4
8.D#/L
16BB/Jk
8.F#\L
16D#\Jk
=16
*M3/4
16F#\LL
16D#\J
[8BB\J
8BB/L]
[8BB/J
8BB/]
8r
=17
*M2/4
16D#/LK
8.BB/J
4BB/
=18
16D#/LK
8.BB/J
4BB/
=19
8r
8BB/
4BB/
=20
4B\
4B\
=21
4G#\
16B\
16r
8r
=22
8B\L
8A#\J
16B\LK
8.G#\J
=23
4F#\
16G#\
16r
8r
=24
8B\L
8A#\J
16B\LK
8.G#\J
=25
4F#\
4D#\
=26
8D#\L
16F#\L
16D#\JJ
4BB/
=27
8D#\L
16F#\L
16D#\JJ
4BB/
=28
*M3/4
8BB\L
16F#\L
16D#\JJ
4BB/
16D#/LL
16BB/JJ
8r
=29
*M2/4
4B\
16G#\LL
16F#\J
8G#\J
=30
8G#\L
8F#\J
8D#\L
16F#\Jk
16r
=31
*M3/4
16G#\LL
16F#\
16D#\
16D#\JJ
8BB/L
8BB/J
8D#\L
16D#\L
16BB\JJ
=32
*M2/4
8.D#/L
16BB/Jk
8.F#\L
16D#\Jk
=33
*M3/4
16F#\LL
16D#\J
8BB\J
8BB/L
8BB/J
8BB/
8r
=34
*M2/4
16D#/LK
8.BB/J
4BB/
=35
16D#/LK
8.BB/J
4BB/
=36
8r
8BB/
4BB/
=37
4B\
16G#\LL
16F#\J
8G#\J
=38
8G#\L
8F#\J
8D#\L
16F#\Jk
16r
=39
16G#\LL
16F#\
16D#\
16BB\JJ
8BB/L
8D#/J
=40
4BB/
8BB/L
8D#/J
=41
4BB/
8D#\
8r
=42
4BB/
8BB/L
8D#/J
=43
4BB/
8.F#\L
16D#\Jk
=44
8F#\L
8D#\J
4r
=45
8D#/L
8BB/J
8D#\L
8F#\J
=46
8BB/L
[8BB/J
8BB/]
8r
=47
!!pagebreak:default
16D#/LK
8.BB/J
4BB/
=48
16D#/LK
8.BB/J
4BB/
=49
8r
8BB/
4BB/
=50
4B\
4B\
=51
4G#\
16B\
16r
8r
=52
8B\L
8A#\J
16B\LK
8.G#\J
=53
4F#\
16G#\
16r
8r
=54
8B\L
8A#\J
16B\LK
8.G#\J
=55
4F#\
8D#/L
8BB/J
=56
8D#\L
16F#\L
16D#\JJ
4BB/
=57
8D#\L
16F#\L
16D#\JJ
4BB/
=58
*M3/4
8D#\L
16F#\L
16D#\JJ
4BB/
16D#/LL
16BB/JJ
8r
=59
*M2/4
4B\
16G#\LL
16F#\J
8G#\J
=60
8G#\L
8F#\J
8D#\L
16F#\Jk
16r
=61
*M3/4
16G#\LL
16F#\
16D#\
16D#\JJ
8BB/L
8BB/J
8D#\L
16D#\L
16BB\JJ
=62
*M2/4
8.F#\L
16D#\Jk
8.F#\L
16D#\Jk
=63
*M3/4
16F#\LL
16D#\
16D#\
16C#\JJ
8BB/L
[8BB/J
8BB/]
8r
=64
*M2/4
16D#/LL
16BB/J
8BB/J
4BB/
=65
16D#/LL
16BB/J
8BB/J
4BB/
=66
8r
8BB/
4BB/
=67
8D#/L
8BB/J
8BB/
8r
=68
*M3/4
8F#\L
8F#\J
16D#/LL
16D#/
16BB/
16BB/JJ
8D#\L
8F#\J
=69
*M2/4
16D#/LK
8.BB/J
8BB/
8r
=70
8BB/L
8AA#/J
8GG#/L
8GG#/J
=71
8BB/L
8BB/J
8BB/L
8BB/J
=72
*M3/4
8BB/L
8F#/J
16F#\LK
8.D#\J
8BB/
8r
=73
16D#/LL
16BB/J
8BB/J
16D#/LL
16BB/
16.BB/
32BB/JJk
8D#\L
8F#\J
=74
8BB/L
8BB/J
8BB/L
8BB/J
8BB/L
8BB/J
==
*-
